public/assets/techs/sequelize.svg

<svg width="20" height="20" viewBox="0 0 20 20" fill="none" xmlns="http://www.w3.org/2000/svg">
<g clip-path="url(#clip0_310_81)">
<path d="M10.0105 0L0 5V15L10.0332 20L19.9982 15.0197V4.98033L10.0105 0ZM2.21568 14.0028V6.11836L10.0066 2.15184L17.8281 6.01277V13.9394L10.0359 17.9282L2.21568 14.0028ZM6.21169 12.0467V14.8542L3.38405 13.5173V10.6228L6.21169 12.0467ZM6.7225 7.71417L9.21875 6.45427L6.39111 5.0104L3.87755 6.29718L6.7225 7.71417ZM10.0995 6.84196L7.57063 8.1366L10.1446 9.41861L12.6525 8.14564L10.0995 6.84196ZM9.62606 10.1652L7.09247 8.90334V11.5119L9.62606 12.7098V10.1652ZM13.3462 7.79353L16.1215 6.38484L13.5607 5.07725L10.7794 6.50111L13.3462 7.79353ZM12.68 4.68955L9.85228 3.24561L7.07097 4.66947L9.89869 6.09333L12.68 4.68955ZM3.38405 7.05628V9.68027L6.21169 11.0172V8.46465L3.38405 7.05628ZM13.756 12.1478V14.9639L16.6142 13.4972V10.6316L13.756 12.1478ZM13.756 8.59517V11.1233L16.6142 9.66026V7.14443L13.756 8.59517ZM10.6193 10.1873V12.722L13.1529 11.425V8.90127L10.6193 10.1873ZM10.6193 13.696V16.5591L13.1529 15.262V12.4745L10.6193 13.696ZM9.62606 13.6878L7.09247 12.4544V15.3489L9.62606 16.5468V13.6878Z" fill="#EEEEEE"/>
</g>
<defs>
<clipPath id="clip0_310_81">
<rect width="20" height="20" fill="white"/>
</clipPath>
</defs>
</svg>

<svg xmlns="http://www.w3.org/2000/svg" width="20" height="20" fill="none" xmlns:v="https://vecta.io/nano"><g clip-path="url(#A)"><path d="M10.011 0L0 5v10l10.033 5 9.965-4.98V4.98L10.011 0zM2.216 14.003V6.118l7.791-3.967 7.821 3.861v7.927l-7.792 3.989-7.82-3.925zm3.996-1.956v2.808l-2.828-1.337v-2.895l2.828 1.424zm.511-4.333l2.496-1.26L6.391 5.01 3.878 6.297l2.845 1.417zm3.377-.872L7.571 8.137l2.574 1.282 2.508-1.273L10.1 6.842zm-.473 3.323L7.092 8.903v2.609l2.534 1.198v-2.545zm3.72-2.372l2.775-1.409-2.561-1.308-2.781 1.424 2.567 1.292zM12.68 4.69L9.852 3.246 7.071 4.669l2.828 1.424L12.68 4.69zM3.384 7.056V9.68l2.828 1.337V8.465L3.384 7.056zm10.372 5.092v2.816l2.858-1.467v-2.866l-2.858 1.516zm0-3.553v2.528l2.858-1.463V7.144l-2.858 1.451zm-3.137 1.592v2.535l2.534-1.297V8.901l-2.534 1.286zm0 3.509v2.863l2.534-1.297v-2.787l-2.534 1.221zm-.993-.008l-2.534-1.233v2.895l2.534 1.198v-2.859z" fill="#3b76c3"/></g><defs><clipPath id="A"><path fill="#fff" d="M0 0h20v20H0z"/></clipPath></defs></svg>
